X:5
T:Aye Me. (p)1651.PLFD.005
T:Symphony,The. (p)1651.PLFD.005
M:4/4
L:1/8
Q:1/2=100
S:Playford, Dancing Master,1st Ed.,1651.
O:England
N:Rest at end of phrase added editorially
N:Bar 7, G replaces F in original
H:1651.
Z:Chris Partington.
K:C
g4 e4|d2 BA G2 AB|c2 c2 d2 d2|e6 ee|e2 fg a2 cc|c2 de f2 AA|
BG e2 d3 c|c6z2:||:A2 AB c2 Bc|d2 G2 G2 ee|e2 de fged|
d6 gg|a2 ee f2 ^ff|g2 dc B2 gg|a2 e2d3 c|c6z2:|

